X: 1880
T: So Fa La
B: australian traditional tunes wiki
B: kameruka bush dance
M:6/8
L:1/8
R: Jig
Q: 3/8=100
K:G
V:1 
"G"B2c|:dedB2c|dedB2c|dedc2B|"D"A3A2B|
"A7"cBc A2B|cBcA2g|"D"fed cBA|1"G"G3B2c:|2"G"G3G2G||
|:GBdg2f|"C"e2d "G"B2A|GBdg2f|"C"e3"G"d3|
gag "D"fgf|"C"efe "G"d2g|"D"fed cBA|1"G"G3-G2G:|2 "G"G3||
% abcbook-tune_id 6342d53a650b2bc93026460f


% abcbook-boost 0
% abcbook-tablature 
% abcbook-transpose 
% abcbook-lastupdated 1665396813587
% abcbook-soundfonts 
% abcbook-repeats 3
% NFF Book 2008

